X:2156
T:Gap in the Clouds, The
O:england
M:4/4
L:1/8
C:Brendan Mulvihill
S:From Martin & Christine Dowling and Dith Sproule: A Thousand Farewells
R:Reel
K:Gm
GBAF Ggfd | cAGF D~F3 | GBAF Ggfd | gfdc (3Bcd AF |
GBAF Ggfd | cAGF D~F3 | A~G3 D~F3 |1 GBAF G3F :|2 GBAF G3A |
:B2ga fdcB | A~F3 cFAc | B2ga fdcB | AG^FA G3A |
1B2ga fdcB | A~F3 cFAB | A~G3 D~F3 | GBAF G3A :|
2B~d3 A~F3 | D~B3 C~A3 | G,B,DG B~d3 | cAFA G4 ||
